X:73
T:Morris simple chords 12
M:3/4
L:1/8
K:Em
DE [FD,,]G [FD,F,A,]E | [D2D,,2] [d2D,2F,2A,2] [FD,,]G | [FD,F,A,]E [D2D,,2] [d2D,2F,2A,2] | [FD,,]G [FD,F,A,]E [DA,,]^C | [DA,^CEG]E [F2D,,2] [D2D,2F,2A,2] |
[D2D,,2] [DD,F,A,]E [FD,,]G | [FD,F,A,]E [D2D,,2] [d2D,2F,2A,2] | [FD,,]G [FD,F,A,]E [D2D,,2] | [d2D,2F,2A,2] [FD,,]G [FD,F,A,]E |
[DA,,]^C [DA,CEG]E [F2D,,2] | [D2D,2F,2A,2] [D2D,,2] [D/D,/F,/A,/]F/A/ | [d2D,,2] [d2D,2F,2A,2] [d2D,,2] | [eD,F,A,]d [^c2A,,2] [A2A,2C2E2] |
[A2A,,2] [A,^CE]B [=c2C,,2] | [c2C,2E,2G,2] [c2C,,2] [dC,E,G,]c | [BG,,]c [BG,B,D]A [G2G,,2] | [G,2B,2D2] [FD,,]G [FD,F,A,]E |
[D2D,,2] [d2D,2F,2A,2] [dD,,]B | [AD,F,A,]F [G2G,,2] [EG,B,D]F | [GA,,]F [EDFA,]D [^CA,,]D | [EA,^CEG]G [F2D,,2] [D2D,2F,2A,2] |
[D2D,,2] [D/D,/F,/A,/]F/A/ [d2D,,2] | [d2D,2F,2A,2] [d2D,,2] [eD,F,A,]d | [^c2A,,2] [A2A,2C2E2] [A2A,,2] | [A,^CE]B [=c2C,,2] [c2C,2E,2G,2] |
[c2C,,2] [dC,E,G,]c [BG,,]c | [BG,B,D]A [G2G,,2] [G,2B,2D2] | [FD,,]G [FD,F,A,]E [D2D,,2] | [d2D,2F,2A,2] [dD,,]B [AD,F,A,]F |
[G2G,,2] [EG,B,D]F [GA,,]F | [EDFA,]D [^CA,,]D [EA,CEG]G | [F2D,,2] [D2D,2F,2A,2] [D2D,,2] |


